X:546
T: GESTERN ABEND IN DER STILLEN RUH
N: E0522F
O: Europa, Mitteleuropa, Deutschland, Rheinland; Hessen
R: Liebes - Lied
M: 4/4
L: 1/8
K: C
G,G, | C2G,2C2G,2 | C2E2G,2
EE | D3B,DCB,A, | G,2G,2G,2
G,G, | F,2D2DCB,A, | G,2E2E2
G,G, | F,2D2DCB,A, | G,2E2E2z2
G,2G,2A,2B,2 | C2E2G,2
EE | D3B,DCB,A, | G,2G,2G,2

